src/assets/img/svg/burger-menu-icons/twitter.svg

<svg width="15" height="12" viewBox="0 0 15 12" fill="none" xmlns="http://www.w3.org/2000/svg">
    <path
            d="M14.2973 1.4164C13.7727 1.65081 13.2136 1.80619 12.6308 1.88163C13.2304 1.51699 13.688 0.943984 13.9032 0.253323C13.3441 0.592816 12.7269 0.832616 12.0691 0.966438C11.5383 0.390737 10.7818 0.0341797 9.95643 0.0341797C8.35516 0.0341797 7.06603 1.35802 7.06603 2.98094C7.06603 3.21445 7.08543 3.43899 7.13304 3.65274C4.72849 3.53329 2.60081 2.35944 1.17149 0.571261C0.921949 1.01224 0.775577 1.51699 0.775577 2.06036C0.775577 3.08063 1.2914 3.98505 2.0603 4.50866C1.59561 4.49968 1.13974 4.36226 0.753533 4.14581C0.753533 4.1548 0.753533 4.16647 0.753533 4.17815C0.753533 5.60976 1.75609 6.79889 3.07079 7.07282C2.83536 7.13838 2.57877 7.16981 2.31248 7.16981C2.12731 7.16981 1.94038 7.15904 1.76491 7.11952C2.13965 8.28619 3.20305 9.1439 4.46749 9.17174C3.48345 9.95581 2.234 10.4282 0.881388 10.4282C0.644196 10.4282 0.416702 10.4174 0.189209 10.3878C1.4704 11.2294 2.98879 11.7099 4.62621 11.7099C9.94849 11.7099 12.8583 7.21921 12.8583 3.32672C12.8583 3.19649 12.8539 3.07075 12.8477 2.94591C13.4217 2.53098 13.9041 2.01276 14.2973 1.4164Z"
            fill="#D0CFCF"/>
</svg>

<svg width="15" height="12" fill="none" xmlns="http://www.w3.org/2000/svg"><path d="M14.297 1.416a5.944 5.944 0 01-1.666.466A2.92 2.92 0 0013.903.253c-.559.34-1.176.58-1.834.713A2.874 2.874 0 009.956.034c-1.6 0-2.89 1.324-2.89 2.947 0 .233.02.458.067.672C4.728 3.533 2.601 2.359 1.171.57c-.25.441-.395.946-.395 1.49 0 1.02.515 1.924 1.284 2.448a2.816 2.816 0 01-1.306-.363v.032c0 1.432 1.002 2.62 2.317 2.895a2.837 2.837 0 01-.759.097c-.185 0-.372-.011-.547-.05.375 1.166 1.438 2.024 2.702 2.052A5.744 5.744 0 01.19 10.388a8.035 8.035 0 004.437 1.322c5.322 0 8.232-4.49 8.232-8.383 0-.13-.004-.256-.01-.381a5.83 5.83 0 001.45-1.53z" fill="#D0CFCF"/></svg>
